contributed-vectors/dutch_bros.svg

<?xml version="1.0" encoding="UTF-8" standalone="no"?>
<svg
   xmlns:dc="http://purl.org/dc/elements/1.1/"
   xmlns:cc="http://creativecommons.org/ns#"
   xmlns:rdf="http://www.w3.org/1999/02/22-rdf-syntax-ns#"
   xmlns:svg="http://www.w3.org/2000/svg"
   xmlns="http://www.w3.org/2000/svg"
   xmlns:sodipodi="http://sodipodi.sourceforge.net/DTD/sodipodi-0.dtd"
   xmlns:inkscape="http://www.inkscape.org/namespaces/inkscape"
   viewBox="0 0 192 192"
   version="1.1"
   id="svg8"
   sodipodi:docname="dutch_bros.svg"
   width="192"
   height="192"
   inkscape:version="1.0.1 (3bc2e813f5, 2020-09-07)"
   inkscape:export-filename="/home/jphilippe/github/delta/android/contributed-vectors/dutch_bros.png"
   inkscape:export-xdpi="96"
   inkscape:export-ydpi="96">
  <metadata
     id="metadata14">
    <rdf:RDF>
      <cc:Work
         rdf:about="">
        <dc:format>image/svg+xml</dc:format>
        <dc:type
           rdf:resource="http://purl.org/dc/dcmitype/StillImage" />
        <dc:title>Dutch Bros</dc:title>
      </cc:Work>
    </rdf:RDF>
  </metadata>
  <defs
     id="defs12" />
  <sodipodi:namedview
     pagecolor="#ffffff"
     bordercolor="#666666"
     borderopacity="1"
     objecttolerance="10"
     gridtolerance="10"
     guidetolerance="10"
     inkscape:pageopacity="0"
     inkscape:pageshadow="2"
     inkscape:window-width="1680"
     inkscape:window-height="1022"
     id="namedview10"
     showgrid="false"
     inkscape:zoom="4.2287582"
     inkscape:cx="56.5"
     inkscape:cy="90.51015"
     inkscape:window-x="1920"
     inkscape:window-y="0"
     inkscape:window-maximized="1"
     inkscape:current-layer="svg8"
     inkscape:document-rotation="0" />
  <title
     id="title2">Dutch Bros</title>
  <g
     id="g834"
     transform="translate(20,20)">
    <rect
       width="152"
       height="152"
       rx="9.9346409"
       fill="#9abeff"
       id="rect4"
       x="0"
       y="0"
       style="stroke-width:0.993464" />
    <path
       d="m 59.349542,89.4217 c 0.188759,0.0994 0.268236,0.0994 0.42719,-0.0497 1.311372,-1.22196 2.980392,-2.7519 5.235555,-5.20576 L 61.20732,110.9898 a 66.343529,66.343529 0 0 0 6.844967,1.27164 H 82.95425 a 66.075294,66.075294 0 0 0 7.3417,-1.31137 L 85.95451,81.8515 a 44.854902,44.854902 0 0 1 6.45752,12.63687 c 0,-0.0795 5.89124,-10.77909 5.89124,-10.82876 A 0.42718954,0.42718954 0 0 0 98.18405,83.3417 72.969934,72.969934 0 0 0 85.58693,72.12549 l 1.45046,-0.307974 c 0.13908,0 0.16888,-0.139085 0.0795,-0.238431 L 81.77206,65.797124 82.55689,64.80366 A 44.308497,44.308497 0 0 1 103.36,50.597124 C 102.1281,49.941438 92.67033,44.745621 92.67033,44.745621 a 0.32784314,0.32784314 0 0 0 -0.35765,0 72.691765,72.691765 0 0 0 -14.146929,17.157124 c -0.05961,0 -1.986928,-2.195556 -2.096209,-2.22536 a 0.24836601,0.24836601 0 0 0 -0.268235,0.04967 l -1.341176,1.37098 -0.745098,-0.596078 A 44.427712,44.427712 0 0 1 59.508497,39.738562 c -0.04967,0.09935 -5.960785,10.868497 -5.891242,10.928105 a 0.61594771,0.61594771 0 0 0 0.119215,0.188758 73.109019,73.109019 0 0 0 17.127321,14.107189 c -6.219085,6.546928 -6.546928,6.76549 -6.199216,6.835033 l 1.79817,0.387451 A 0.25830065,0.25830065 0 0 1 66.651503,72.453333 44.437647,44.437647 0 0 1 48.64,83.59007 c 1.857778,0.95372 10.709542,5.83163 10.709542,5.83163 z"
       fill="#ffffff"
       id="path6"
       style="stroke-width:0.993464" />
  </g>
</svg>

<svg xmlns="http://www.w3.org/2000/svg" width="192" height="192"><g transform="translate(20 20)"><rect width="152" height="152" fill="#9abeff" rx="9.935" style="stroke-width:.993464"/><path fill="#fff" d="M59.35 89.422c.188.1.268.1.427-.05 1.311-1.222 2.98-2.752 5.235-5.206l-3.805 26.824a66.344 66.344 0 0 0 6.845 1.271h14.902a66.075 66.075 0 0 0 7.342-1.31l-4.341-29.1a44.855 44.855 0 0 1 6.457 12.637c0-.08 5.891-10.779 5.891-10.828a.427.427 0 0 0-.119-.318 72.97 72.97 0 0 0-12.597-11.217l1.45-.307c.14 0 .17-.14.08-.239l-5.345-5.782.785-.993a44.308 44.308 0 0 1 20.803-14.207c-1.232-.656-10.69-5.851-10.69-5.851a.328.328 0 0 0-.357 0 72.692 72.692 0 0 0-14.147 17.157c-.06 0-1.987-2.196-2.096-2.226a.248.248 0 0 0-.269.05l-1.34 1.371-.746-.596a44.428 44.428 0 0 1-14.207-20.763c-.05.099-5.96 10.868-5.89 10.928a.616.616 0 0 0 .118.188 73.109 73.109 0 0 0 17.128 14.108c-6.22 6.547-6.547 6.765-6.2 6.835l1.799.387a.258.258 0 0 1 .189.268A44.438 44.438 0 0 1 48.64 83.59c1.858.954 10.71 5.832 10.71 5.832z" style="stroke-width:.993464"/></g></svg>
